X:1
T:Was Mein Gott Will, 87.87 D
T:French tune, harmony by J. S. Bach, 1750
T:Was Mein Gott Will, 87.87 D
T:Public Domain
C:French tune, harmony by J. S. Bach, 1750
Z:Public Domain
%%score ( 1 2 ) ( 3 4 )
L:1/8
M:4/4
K:Bb
V:1 treble 
V:2 treble 
V:3 bass 
V:4 bass 
V:1
 [B,D]2 | [B,F]2 [B,G]2 [B,F]2 (B,C) | [DB]2 [CA]2 [DB]2 [DB]2 | [DA]2 [B,G]2 [Ec]2 [CA]2 | %4
 (G2 ^F2) [DG]2 [B,D]2 | [B,F]2 [B,G]2 [B,F]2 (B,C) | [DB]2 [CA]2 [DB]2 [DB]2 | %7
 [DA]2 [B,G]2 [Ec]2 [CA]2 | (G2 ^F2) [DG]2 [DG]2 | [CG]2 [=EG]2 [FA]2 [DG]2 | %10
 [CF]2 [C=E]2 [CF]2 [DF]2 | [CF]2 [DA]2 [DB]2 [DA]2 | (D2 ^C2) [DA]2 [B,D]2 | %13
 [B,F]2 [B,G]2 [B,F]2 (B,C) | [DB]2 [CA]2 [DB]2 [DB]2 | [DA]2 [B,G]2 [Ec]2 [CA]2 | %16
 (G2 ^F2) [DG]2 x2 |] x6 |] %18
V:2
 x2 | x6 B2 | x8 | x8 | D4 x4 | x6 B2 | x8 | x8 | D4 x4 | x8 | x8 | x8 | G4 x4 | x6 B2 | x8 | x8 | %16
 D4 x4 |] x6 |] %18
V:3
 G,2 | [D,F,]2 E,2 [B,,D,]2 ([D,F,][E,G,]) | F,2 [F,,F,]2 [B,,F,]2 [G,,G,]2 | %3
 [D,F,]2 [E,G,]2 [C,G,]2 [F,A,]2 | ([B,,B,]2 [D,A,]2) [G,,B,]2 x2 | G,2 x6 | %6
 [D,F,]2 E,2 [B,,D,]2 ([D,F,][E,G,]) | F,2 [F,,F,]2 [B,,F,]2 [G,,G,]2 | %8
 [D,F,]2 [E,G,]2 [C,G,]2 [F,A,]2 | ([B,,B,]2 [D,A,]2) [G,,B,]2 [G,B,]2 | %10
 [=E,G,]2 [C,C]2 [F,,C]2 [G,,B,]2 | [A,,A,]2 [C,G,]2 [F,A,]2 [B,,B,]2 | %12
 [F,,A,]2 [^F,,A,]2 [G,,G,]2 [D,^F,]2 | [E,G,]4 [D,^F,]2 G,2 | %14
 [D,F,]2 E,2 [B,,D,]2 ([D,F,][E,G,]) | F,2 [F,,F,]2 [B,,F,]2 [G,,G,]2 | %16
 [D,F,]2 [E,G,]2 [C,G,]2 [F,A,]2 |] ([B,,B,]2 [D,A,]2) [G,,=B,]2 |] %18
V:4
 G,2 | x2 E,2 x4 | F,2 x6 | x8 | x8 | G,2 x6 | x2 E,2 x4 | F,2 x6 | x8 | x8 | x8 | x8 | x8 | %13
 x6 G,2 | x2 E,2 x4 | F,2 x6 | x8 |] x6 |] %18

